X:1
T:Title
%%score { ( 1 3 ) | ( 2 4 ) }
L:1/8
Q:1/4=100
M:4/4
K:Ab
V:1 treble nm="Grand Piano"
V:3 treble 
V:2 bass 
V:4 bass 
V:1
 [A,CE]2 [CEA]2 [CEA]2 [CA]2 | [GB][FA][EG][DF] [CE]2 [Ec]2 | [EB]2 [A,EA]2 [A,DF]2 [DG]2 | %3
w: G.~F.~Root * * *|||
 [CA]6 z2 | [A,CE]2 [CEA]2 [CEA]2 [CA]2 | [GB][FA][EG][DF] [CE]2 [Ec]2 | %6
w: |||
 [EB]2 [EG]2 [FA]2 [A,=DF]2 | E6 z2 | z2 B4 z2 | z2 c4 z2 | z ddd d2 d2 | c6 z2 | z2 B4 z2 | %13
w: |||||||
 z2 c4 z2 | [Fd]2 [DB]2 [DF]2 [DG]2 | [CA]6 z2 |] %16
w: |||
V:2
 A,,2 A,,2 A,,2 A,,2 | [D,D]2 [D,A,]2 [A,,A,]2 [A,,A,]2 | [B,,G,]2 C,2 D,2 E,2 | z2 A,4 z2 | %4
 A,,2 A,,2 A,,2 A,,2 | [D,D]2 [D,A,]2 [A,,A,]2 [A,,A,]2 | [B,,G,]2 [B,,B,]2 [B,,B,]2 B,,2 | %7
 E,2 E,2 E,2 E,2 | [E,G,D]2 [E,G,D]2 [E,G,]2 [E,G,]2 | [A,,A,]2 [A,,A,]2 [A,,A,]2 [A,,A,]2 | %10
 [E,G,]2 [E,G,E]2 [E,G,E]2 [E,B,E]2 | [A,E]2 A,2 A,2 A,2 | [E,G,D]2 [E,G,D]2 [E,G,]2 [E,G,]2 | %13
 [A,,A,]2 [A,,A,]2 [A,,A,]2 [A,,A,]2 | [D,A,]2 [D,B,]2 [B,,B,]2 [E,B,]2 | [A,,A,]6 z2 |] %16
V:3
 x8 | x8 | x8 | A,2 z2 z4 | x8 | x8 | x8 | G,8 | E2 z2 D2 D2 | [CE]2 C2 C2 C2 | E2 z2 z4 | %11
 z2 E2 E2 C2 | E2 z2 D2 D2 | [CE]2 C2 C2 [Ec]2 | x8 | x8 |] %16
V:4
 x8 | x8 | x8 | A,,2 z2 E,2 C,2 | x8 | x8 | x8 | x8 | x8 | x8 | x8 | x8 | x8 | x8 | x8 | x8 |] %16

